X:5
T: Fair Jenny's Jig
I: Fair Jenny's JigJ-18Djig
C: Peter Barnes \2511977
M: 6/8
R: jig
K: D
A| "D"f3 fgf| "A"ecA ecA| "G"Bcd "A"ecA| "G"Bcd "A"e2A|
   "D"f3 fed| "A"ecA ecA| "G"Bcd "A"e2A| ABc "D"d2 :|
|:A| "G"B3 B=cB| GBB B=cB| "D"ADD dDD| ^cDD "D7"=cDD|
   "G"B3 B=cB| GBB B=cB| "A"AEA "A7"AB^c| "D"dAF D2 :|
%%text Roaring Jelly  J-18
%%text 08/29/98
